img/accent-active-bullet.svg

<svg width="21" height="21" viewBox="0 0 21 21" fill="none" xmlns="http://www.w3.org/2000/svg">
<path fill-rule="evenodd" clip-rule="evenodd" d="M19 8.00001L19 13H19L19 8.00001H19ZM19 5.00001L19 2L16 2V1.19209e-05H13H8.00002H5.00002V2L2 2V5.00001H-6.55651e-07V2V0H2H19L21 1.90735e-06V2V5.00001H19H19ZM21 16V19V21H19L16 21V19H19L19 16H19H21ZM-6.55651e-07 16H2V19H5.00002V21L2 21H-6.55651e-07V19V16Z" fill="white"/>
</svg>

<svg width="21" height="21" fill="none" xmlns="http://www.w3.org/2000/svg"><path fill-rule="evenodd" clip-rule="evenodd" d="M19 8v5-5zm0-3V2h-3V0H5v2H2v3H0V0h21v5h-2zm2 11v5h-5v-2h3v-3h2zM0 16h2v3h3v2H0v-5z" fill="#fff"/></svg>
